X: 1
T: Funiculi-Funicula
P: piffero primo a0450
O: Luigi Denza
%R: jig, tarantella
F: http://ancients.sudburymuster.org/mus/sng/pdf/finiculiC0.pdf
Z: 2020 John Chambers <jc:trillian.mit.edu>
M: 6/8
L: 1/8
K: G
d |\
g6- | g2g f2f | d2d e2e | B3 B3- | B2B "^>"A2G | G6- | Gz B "^>"A2G | G6- | Gz2 z2 :|\
B | B6- | B2B ^c2=c |
B2B ^c2=c | B3 B3- | B2F "^>"F2F | F6- | Fz F "^>"F2F | F6- | Fz2 z2 |]\
d | d6- | d2d e2e | d2d e2e | d3 d3- |
d2A "^>"A2A | A6- | Az A "^>"A2A | A6- | Az2 z2z |]\
"^>"f3 ez2 | "^>"f3 ez2 | "^>"g2f e2g | f3- fz2 | "^>"f3 ez2 | "^>"f3 ez2 | "^>"g2f e2g |
dz B B2B | B2B B2B | B2B B2B | B2B B2B | Hg6 | "^>"a2g e2g | dz B B2c | d2c B2A | Gz2 z2 |]
